X: 139
T: No_95_Song_for_Wounded-Leg_Stake_of_Drum.krn
N: Derived from No_95_Song_for_Wounded-Leg_Stake_of_Drum.krn
%%abc-version 2.0
%%abcx-abcm2ps-target-version 5.9.1 (29 Sep 2008)
%%abc-creator hum2abc beta
%%abcx-conversion-date 2019/03/15 08:35:45
%%humdrum-veritas 3190551647
%%humdrum-veritas-data 4275296273
%%linebreak <none>
%%barnumbers 0
L: 1/8
M: 3/4
K: G clef=bass
[K:clef=bass][M:3/4]z4z z/ D/ [I:setbarnb 2]| 
D2DD D3/C/ | 
CD A,A, A, z/ D/ | 
D2DD D3/C/ | 
CD A,A, A,3/G,/ | 
G,2E,B, G,3/E,/ | 
E,3/D,/ D,D, D, z/ G,/ | 
G,2D,B, G,3/E,/ | 
(E,3/D,/) D,D, D, z/ E,/ | 
E,2D,D, D,D, | 
D,4D, z ||  
[M:2/4]A,A,/A,/ A,G, | 
A,/A,/G, E,D, | 
D,2D,D, | 
D,D, D, z/ G,/ ||  
[M:3/4]G,2E,B,G,2 | 
E,3/D,/ D,D, D, z/ E,/ | 
E,2D,D, D, z :|]  



